Newaita-dark/apps/64/com.github.davidmhewitt.torrential.svg

<svg height="64pt" viewBox="0 0 64 64" width="64pt" xmlns="http://www.w3.org/2000/svg" xmlns:xlink="http://www.w3.org/1999/xlink"><linearGradient id="a"><stop offset="0" stop-opacity=".313726"/><stop offset=".222222" stop-opacity=".27451"/><stop offset="1" stop-opacity="0"/></linearGradient><radialGradient id="b" cx="450.908936" cy="189.579361" gradientTransform="matrix(.00000035 -.156265 -.281277 -.0000002 84.415651 127.190665)" gradientUnits="userSpaceOnUse" r="21.166656" xlink:href="#a"/><radialGradient id="c" cx="450.908936" cy="189.579361" gradientTransform="matrix(-.00000035 .156265 .281277 .0000002 -20.909582 -15.054958)" gradientUnits="userSpaceOnUse" r="21.166656" xlink:href="#a"/><radialGradient id="d" cx="450.908936" cy="189.579361" gradientTransform="matrix(-.00000035 -.156265 .281277 -.0000002 -20.909582 127.190665)" gradientUnits="userSpaceOnUse" r="21.166656" xlink:href="#a"/><radialGradient id="e" cx="450.908936" cy="189.579361" gradientTransform="matrix(.00000035 .156265 -.281277 .0000002 84.415648 -15.054959)" gradientUnits="userSpaceOnUse" r="21.166656" xlink:href="#a"/><linearGradient id="f"><stop offset="0" stop-color="#e0e0e0"/><stop offset="1" stop-color="#eee"/></linearGradient><linearGradient id="g" gradientUnits="userSpaceOnUse" x1="31.753056" x2="31.753056" xlink:href="#f" y1="56.06789790428" y2="5.79222438278"/><linearGradient id="h" gradientUnits="userSpaceOnUse" x1="31.753056" x2="31.753056" y1="5.792224912" y2="56.06789790428"><stop offset="0" stop-color="#42a5f5"/><stop offset="1" stop-color="#64b5f6"/></linearGradient><linearGradient id="i" gradientUnits="userSpaceOnUse" x1="31.753048" x2="31.753048" y1="56.067868" y2="5.79221000013"><stop offset="0" stop-color="#90caf9"/><stop offset="1" stop-color="#64b5f6"/></linearGradient><linearGradient id="j" gradientUnits="userSpaceOnUse" x1="31.753056" x2="31.753056" y1="56.06789790428" y2="5.79222438278"><stop offset="0" stop-color="#bbdefb"/><stop offset="1" stop-color="#90caf9"/></linearGradient><linearGradient id="k" gradientUnits="userSpaceOnUse" x1="31.753048" x2="31.753048" xlink:href="#f" y1="25.63789475001" y2="30.93006950002"/><linearGradient id="l" gradientUnits="userSpaceOnUse" x1="31.753048" x2="31.753048" xlink:href="#f" y1="26.29941525001" y2="30.930068"/><path d="m31.753906 56.066406h5.292969v-2.644531h-5.292969zm0 0" fill="url(#b)"/><path d="m31.753906 56.066406h-5.292968v2.648438h5.292968zm0 0" fill="url(#c)"/><path d="m31.753906 56.066406h-5.292968v-2.644531h5.292968zm0 0" fill="url(#d)"/><path d="m31.753906 56.066406h5.292969v2.648438h-5.292969zm0 0" fill="url(#e)"/><path d="m23.816406 5.792969c-1.46875 0-2.648437 1.179687-2.648437 2.644531v26.460938h-7.9375c-2.457031 0-3.585938 3.058593-1.722657 4.65625l18.523438 15.875c.992188.851562 2.453125.851562 3.445312 0l18.519532-15.875c1.867187-1.597657.734375-4.65625-1.71875-4.65625h-7.941406v-26.460938c0-1.464844-1.179688-2.644531-2.644532-2.644531zm0 0" fill="url(#g)"/><path d="m23.816406 5.792969c-1.46875 0-2.648437 1.179687-2.648437 2.644531v4.632812h21.167969v-4.632812c0-1.464844-1.179688-2.644531-2.644532-2.644531zm0 0" fill="url(#h)"/><path d="m31.722656 10.421875c-1.449218 0-2.617187 1.179687-2.617187 2.648437h-7.9375v7.9375h21.167969v-7.9375h-7.9375c0-1.46875-1.164063-2.648437-2.613282-2.648437zm0 0" fill="url(#i)"/><path d="m31.722656 18.359375c-1.449218 0-2.617187 1.183594-2.617187 2.648437h-7.9375v7.9375h21.167969v-7.9375h-7.9375c0-1.464843-1.164063-2.648437-2.613282-2.648437zm0 0" fill="url(#j)"/><path d="m31.753906 17.699219c-1.46875 0-2.648437 1.179687-2.648437 2.644531h-7.9375v.664062h7.9375c0-1.464843 1.179687-2.648437 2.648437-2.648437 1.464844 0 2.644532 1.183594 2.644532 2.648437h7.9375v-.664062h-7.9375c0-1.464844-1.179688-2.644531-2.644532-2.644531zm0 0" fill-opacity=".235294"/><g fill="#fff"><path d="m31.753906 18.359375c-1.46875 0-2.648437 1.183594-2.648437 2.648437h-7.9375v.660157h7.9375c0-1.464844 1.179687-2.644531 2.648437-2.644531 1.464844 0 2.644532 1.179687 2.644532 2.644531h7.9375v-.660157h-7.9375c0-1.464843-1.179688-2.648437-2.644532-2.648437zm0 0" fill-opacity=".392157"/><path d="m23.816406 5.792969c-1.46875 0-2.648437 1.179687-2.648437 2.644531v.992188c0-1.464844 1.179687-2.644532 2.648437-2.644532h15.875c1.464844 0 2.644532 1.179688 2.644532 2.644532v-.992188c0-1.464844-1.179688-2.644531-2.644532-2.644531zm0 0" fill-opacity=".392157"/><path d="m13.230469 34.898438c-1.804688 0-2.894531 1.652343-2.605469 3.164062.21875-1.160156 1.195312-2.171875 2.605469-2.171875h7.9375v-.992187zm0 0"/><path d="m42.335938 34.898438v.992187h7.941406c1.410156 0 2.382812 1.011719 2.601562 2.171875.292969-1.511719-.796875-3.164062-2.601562-3.164062zm0 0"/></g><path d="m10.589844 37.324219c-.070313.789062.203125 1.617187.917968 2.230469l18.523438 15.875c.992188.851562 2.453125.851562 3.445312 0l18.519532-15.875c.71875-.613282.992187-1.441407.917968-2.230469-.058593.632812-.347656 1.253906-.917968 1.742187l-18.519532 15.878906c-.992187.847657-2.453124.847657-3.445312 0l-18.523438-15.878906c-.570312-.488281-.859374-1.109375-.917968-1.742187zm0 0" fill-opacity=".235294"/><path d="m31.753906 25.636719c-1.46875 0-2.648437 1.179687-2.648437 2.648437h-7.9375v2.644532h21.167969v-2.644532h-7.9375c0-1.46875-1.179688-2.648437-2.644532-2.648437zm0 0" fill="url(#k)"/><path d="m31.753906 25.636719c-1.46875 0-2.648437 1.179687-2.648437 2.648437h-7.9375v2.644532h21.167969v-2.644532h-7.9375c0-1.46875-1.179688-2.648437-2.644532-2.648437zm0 0" fill="url(#l)"/><path d="m31.753906 25.636719c-1.46875 0-2.648437 1.179687-2.648437 2.648437h-7.9375v.660156h7.9375c0-1.464843 1.179687-2.644531 2.648437-2.644531 1.464844 0 2.644532 1.179688 2.644532 2.644531h7.9375v-.660156h-7.9375c0-1.46875-1.179688-2.648437-2.644532-2.648437zm0 0" fill-opacity=".235294"/><path d="m31.753906 26.300781c-1.46875 0-2.648437 1.179688-2.648437 2.644531h-7.9375v.660157h7.9375c0-1.464844 1.179687-2.644531 2.648437-2.644531 1.464844 0 2.644532 1.179687 2.644532 2.644531h7.9375v-.660157h-7.9375c0-1.464843-1.179688-2.644531-2.644532-2.644531zm0 0" fill="#fff"/><path d="m31.753906 9.761719c-1.46875 0-2.648437 1.179687-2.648437 2.644531h-7.9375v.664062h7.9375c0-1.46875 1.179687-2.648437 2.648437-2.648437 1.464844 0 2.644532 1.179687 2.644532 2.648437h7.9375v-.664062h-7.9375c0-1.464844-1.179688-2.644531-2.644532-2.644531zm0 0" fill-opacity=".235294"/><path d="m31.753906 10.421875c-1.46875 0-2.648437 1.179687-2.648437 2.648437h-7.9375v.660157h7.9375c0-1.464844 1.179687-2.644531 2.648437-2.644531 1.464844 0 2.644532 1.179687 2.644532 2.644531h7.9375v-.660157h-7.9375c0-1.46875-1.179688-2.648437-2.644532-2.648437zm0 0" fill="#fff" fill-opacity=".392157"/><path d="m23.816406 5.605469c-1.566406 0-2.835937 1.265625-2.835937 2.832031v26.273438h-7.75c-1.304688 0-2.277344.820312-2.65625 1.851562-.382813 1.03125-.179688 2.285156.8125 3.132812l18.523437 15.878907c1.058594.90625 2.625.90625 3.6875 0l18.523438-15.878907c.988281-.847656 1.191406-2.101562.8125-3.132812-.382813-1.03125-1.351563-1.851562-2.65625-1.851562h-7.753906v-26.273438c0-1.566406-1.265626-2.832031-2.832032-2.832031zm0 .375h15.875c1.363282 0 2.457032 1.09375 2.457032 2.457031v26.460938c0 .105468.085937.1875.1875.1875h7.941406c1.148437 0 1.972656.707031 2.304687 1.605468.332031.898438.167969 1.972656-.707031 2.71875l-18.523438 15.878906c-.921874.789063-2.277343.789063-3.199218 0l-18.523438-15.878906c-.871094-.746094-1.035156-1.820312-.703125-2.71875.332031-.898437 1.15625-1.605468 2.304688-1.605468h7.9375c.105469 0 .1875-.082032.1875-.1875v-26.460938c0-1.363281 1.09375-2.457031 2.460937-2.457031zm0 0" fill="#212121"/></svg>

<?xml version="1.0" encoding="UTF-8"?>
<svg xmlns="http://www.w3.org/2000/svg" xmlns:xlink="http://www.w3.org/1999/xlink" width="64pt" height="64pt" viewBox="0 0 64 64" version="1.1">
<defs>
<radialGradient id="radial0" gradientUnits="userSpaceOnUse" cx="450.908936" cy="189.579361" fx="450.908936" fy="189.579361" r="21.166656" gradientTransform="matrix(0.000000348341,-0.156265,-0.281277,-0.000000203077,84.415651,127.190665)">
<stop offset="0" style="stop-color:rgb(0%,0%,0%);stop-opacity:0.313726;"/>
<stop offset="0.222222" style="stop-color:rgb(0%,0%,0%);stop-opacity:0.27451;"/>
<stop offset="1" style="stop-color:rgb(0%,0%,0%);stop-opacity:0;"/>
</radialGradient>
<radialGradient id="radial1" gradientUnits="userSpaceOnUse" cx="450.908936" cy="189.579361" fx="450.908936" fy="189.579361" r="21.166656" gradientTransform="matrix(-0.000000348341,0.156265,0.281277,0.000000203077,-20.909582,-15.054958)">
<stop offset="0" style="stop-color:rgb(0%,0%,0%);stop-opacity:0.313726;"/>
<stop offset="0.222222" style="stop-color:rgb(0%,0%,0%);stop-opacity:0.27451;"/>
<stop offset="1" style="stop-color:rgb(0%,0%,0%);stop-opacity:0;"/>
</radialGradient>
<radialGradient id="radial2" gradientUnits="userSpaceOnUse" cx="450.908936" cy="189.579361" fx="450.908936" fy="189.579361" r="21.166656" gradientTransform="matrix(-0.000000348341,-0.156265,0.281277,-0.000000203077,-20.909582,127.190665)">
<stop offset="0" style="stop-color:rgb(0%,0%,0%);stop-opacity:0.313726;"/>
<stop offset="0.222222" style="stop-color:rgb(0%,0%,0%);stop-opacity:0.27451;"/>
<stop offset="1" style="stop-color:rgb(0%,0%,0%);stop-opacity:0;"/>
</radialGradient>
<radialGradient id="radial3" gradientUnits="userSpaceOnUse" cx="450.908936" cy="189.579361" fx="450.908936" fy="189.579361" r="21.166656" gradientTransform="matrix(0.000000348341,0.156265,-0.281277,0.000000203077,84.415648,-15.054959)">
<stop offset="0" style="stop-color:rgb(0%,0%,0%);stop-opacity:0.313726;"/>
<stop offset="0.222222" style="stop-color:rgb(0%,0%,0%);stop-opacity:0.27451;"/>
<stop offset="1" style="stop-color:rgb(0%,0%,0%);stop-opacity:0;"/>
</radialGradient>
<linearGradient id="linear0" gradientUnits="userSpaceOnUse" x1="960" y1="1695.118164" x2="960" y2="175.118118" gradientTransform="matrix(0.0330761,0,0,0.0330761,0,0)">
<stop offset="0" style="stop-color:rgb(87.843138%,87.843138%,87.843138%);stop-opacity:1;"/>
<stop offset="1" style="stop-color:rgb(93.333334%,93.333334%,93.333334%);stop-opacity:1;"/>
</linearGradient>
<linearGradient id="linear1" gradientUnits="userSpaceOnUse" x1="960" y1="175.118134" x2="960" y2="1695.118164" gradientTransform="matrix(0.0330761,0,0,0.0330761,0,0)">
<stop offset="0" style="stop-color:rgb(25.882354%,64.705884%,96.078432%);stop-opacity:1;"/>
<stop offset="1" style="stop-color:rgb(39.215687%,70.980394%,96.470588%);stop-opacity:1;"/>
</linearGradient>
<linearGradient id="linear2" gradientUnits="userSpaceOnUse" x1="254" y1="233.5" x2="254" y2="-168.666656" gradientTransform="matrix(0.125012,0,0,0.125012,0,26.877566)">
<stop offset="0" style="stop-color:rgb(56.470591%,79.215688%,97.647059%);stop-opacity:1;"/>
<stop offset="1" style="stop-color:rgb(39.215687%,70.980394%,96.470588%);stop-opacity:1;"/>
</linearGradient>
<linearGradient id="linear3" gradientUnits="userSpaceOnUse" x1="960" y1="1695.118164" x2="960" y2="175.118118" gradientTransform="matrix(0.0330761,0,0,0.0330761,0,0)">
<stop offset="0" style="stop-color:rgb(73.333335%,87.058824%,98.431373%);stop-opacity:1;"/>
<stop offset="1" style="stop-color:rgb(56.470591%,79.215688%,97.647059%);stop-opacity:1;"/>
</linearGradient>
<linearGradient id="linear4" gradientUnits="userSpaceOnUse" x1="254" y1="-9.916666" x2="254" y2="32.416668" gradientTransform="matrix(0.125012,0,0,0.125012,0,26.877597)">
<stop offset="0" style="stop-color:rgb(87.843138%,87.843138%,87.843138%);stop-opacity:1;"/>
<stop offset="1" style="stop-color:rgb(93.333334%,93.333334%,93.333334%);stop-opacity:1;"/>
</linearGradient>
<linearGradient id="linear5" gradientUnits="userSpaceOnUse" x1="254" y1="-25.791666" x2="254" y2="11.25" gradientTransform="matrix(0.125012,0,0,0.125012,0,29.523683)">
<stop offset="0" style="stop-color:rgb(87.843138%,87.843138%,87.843138%);stop-opacity:1;"/>
<stop offset="1" style="stop-color:rgb(93.333334%,93.333334%,93.333334%);stop-opacity:1;"/>
</linearGradient>
</defs>
<g id="surface1">
<path style=" stroke:none;fill-rule:nonzero;fill:url(#radial0);" d="M 31.753906 56.066406 L 37.046875 56.066406 L 37.046875 53.421875 L 31.753906 53.421875 Z M 31.753906 56.066406 "/>
<path style=" stroke:none;fill-rule:nonzero;fill:url(#radial1);" d="M 31.753906 56.066406 L 26.460938 56.066406 L 26.460938 58.714844 L 31.753906 58.714844 Z M 31.753906 56.066406 "/>
<path style=" stroke:none;fill-rule:nonzero;fill:url(#radial2);" d="M 31.753906 56.066406 L 26.460938 56.066406 L 26.460938 53.421875 L 31.753906 53.421875 Z M 31.753906 56.066406 "/>
<path style=" stroke:none;fill-rule:nonzero;fill:url(#radial3);" d="M 31.753906 56.066406 L 37.046875 56.066406 L 37.046875 58.714844 L 31.753906 58.714844 Z M 31.753906 56.066406 "/>
<path style=" stroke:none;fill-rule:nonzero;fill:url(#linear0);" d="M 23.816406 5.792969 C 22.347656 5.792969 21.167969 6.972656 21.167969 8.4375 L 21.167969 34.898438 L 13.230469 34.898438 C 10.773438 34.898438 9.644531 37.957031 11.507812 39.554688 L 30.03125 55.429688 C 31.023438 56.28125 32.484375 56.28125 33.476562 55.429688 L 51.996094 39.554688 C 53.863281 37.957031 52.730469 34.898438 50.277344 34.898438 L 42.335938 34.898438 L 42.335938 8.4375 C 42.335938 6.972656 41.15625 5.792969 39.691406 5.792969 Z M 23.816406 5.792969 "/>
<path style=" stroke:none;fill-rule:nonzero;fill:url(#linear1);" d="M 23.816406 5.792969 C 22.347656 5.792969 21.167969 6.972656 21.167969 8.4375 L 21.167969 13.070312 L 42.335938 13.070312 L 42.335938 8.4375 C 42.335938 6.972656 41.15625 5.792969 39.691406 5.792969 Z M 23.816406 5.792969 "/>
<path style=" stroke:none;fill-rule:nonzero;fill:url(#linear2);" d="M 31.722656 10.421875 C 30.273438 10.421875 29.105469 11.601562 29.105469 13.070312 L 21.167969 13.070312 L 21.167969 21.007812 L 42.335938 21.007812 L 42.335938 13.070312 L 34.398438 13.070312 C 34.398438 11.601562 33.234375 10.421875 31.785156 10.421875 Z M 31.722656 10.421875 "/>
<path style=" stroke:none;fill-rule:nonzero;fill:url(#linear3);" d="M 31.722656 18.359375 C 30.273438 18.359375 29.105469 19.542969 29.105469 21.007812 L 21.167969 21.007812 L 21.167969 28.945312 L 42.335938 28.945312 L 42.335938 21.007812 L 34.398438 21.007812 C 34.398438 19.542969 33.234375 18.359375 31.785156 18.359375 Z M 31.722656 18.359375 "/>
<path style=" stroke:none;fill-rule:nonzero;fill:rgb(0%,0%,0%);fill-opacity:0.235294;" d="M 31.753906 17.699219 C 30.285156 17.699219 29.105469 18.878906 29.105469 20.34375 L 21.167969 20.34375 L 21.167969 21.007812 L 29.105469 21.007812 C 29.105469 19.542969 30.285156 18.359375 31.753906 18.359375 C 33.21875 18.359375 34.398438 19.542969 34.398438 21.007812 L 42.335938 21.007812 L 42.335938 20.34375 L 34.398438 20.34375 C 34.398438 18.878906 33.21875 17.699219 31.753906 17.699219 Z M 31.753906 17.699219 "/>
<path style=" stroke:none;fill-rule:nonzero;fill:rgb(100%,100%,100%);fill-opacity:0.392157;" d="M 31.753906 18.359375 C 30.285156 18.359375 29.105469 19.542969 29.105469 21.007812 L 21.167969 21.007812 L 21.167969 21.667969 L 29.105469 21.667969 C 29.105469 20.203125 30.285156 19.023438 31.753906 19.023438 C 33.21875 19.023438 34.398438 20.203125 34.398438 21.667969 L 42.335938 21.667969 L 42.335938 21.007812 L 34.398438 21.007812 C 34.398438 19.542969 33.21875 18.359375 31.753906 18.359375 Z M 31.753906 18.359375 "/>
<path style=" stroke:none;fill-rule:nonzero;fill:rgb(100%,100%,100%);fill-opacity:0.392157;" d="M 23.816406 5.792969 C 22.347656 5.792969 21.167969 6.972656 21.167969 8.4375 L 21.167969 9.429688 C 21.167969 7.964844 22.347656 6.785156 23.816406 6.785156 L 39.691406 6.785156 C 41.15625 6.785156 42.335938 7.964844 42.335938 9.429688 L 42.335938 8.4375 C 42.335938 6.972656 41.15625 5.792969 39.691406 5.792969 Z M 23.816406 5.792969 "/>
<path style=" stroke:none;fill-rule:nonzero;fill:rgb(100%,100%,100%);fill-opacity:1;" d="M 13.230469 34.898438 C 11.425781 34.898438 10.335938 36.550781 10.625 38.0625 C 10.84375 36.902344 11.820312 35.890625 13.230469 35.890625 L 21.167969 35.890625 L 21.167969 34.898438 Z M 13.230469 34.898438 "/>
<path style=" stroke:none;fill-rule:nonzero;fill:rgb(100%,100%,100%);fill-opacity:1;" d="M 42.335938 34.898438 L 42.335938 35.890625 L 50.277344 35.890625 C 51.6875 35.890625 52.660156 36.902344 52.878906 38.0625 C 53.171875 36.550781 52.082031 34.898438 50.277344 34.898438 Z M 42.335938 34.898438 "/>
<path style=" stroke:none;fill-rule:nonzero;fill:rgb(0%,0%,0%);fill-opacity:0.235294;" d="M 10.589844 37.324219 C 10.519531 38.113281 10.792969 38.941406 11.507812 39.554688 L 30.03125 55.429688 C 31.023438 56.28125 32.484375 56.28125 33.476562 55.429688 L 51.996094 39.554688 C 52.714844 38.941406 52.988281 38.113281 52.914062 37.324219 C 52.855469 37.957031 52.566406 38.578125 51.996094 39.066406 L 33.476562 54.945312 C 32.484375 55.792969 31.023438 55.792969 30.03125 54.945312 L 11.507812 39.066406 C 10.9375 38.578125 10.648438 37.957031 10.589844 37.324219 Z M 10.589844 37.324219 "/>
<path style=" stroke:none;fill-rule:nonzero;fill:url(#linear4);" d="M 31.753906 25.636719 C 30.285156 25.636719 29.105469 26.816406 29.105469 28.285156 L 21.167969 28.285156 L 21.167969 30.929688 L 42.335938 30.929688 L 42.335938 28.285156 L 34.398438 28.285156 C 34.398438 26.816406 33.21875 25.636719 31.753906 25.636719 Z M 31.753906 25.636719 "/>
<path style=" stroke:none;fill-rule:nonzero;fill:url(#linear5);" d="M 31.753906 25.636719 C 30.285156 25.636719 29.105469 26.816406 29.105469 28.285156 L 21.167969 28.285156 L 21.167969 30.929688 L 42.335938 30.929688 L 42.335938 28.285156 L 34.398438 28.285156 C 34.398438 26.816406 33.21875 25.636719 31.753906 25.636719 Z M 31.753906 25.636719 "/>
<path style=" stroke:none;fill-rule:nonzero;fill:rgb(0%,0%,0%);fill-opacity:0.235294;" d="M 31.753906 25.636719 C 30.285156 25.636719 29.105469 26.816406 29.105469 28.285156 L 21.167969 28.285156 L 21.167969 28.945312 L 29.105469 28.945312 C 29.105469 27.480469 30.285156 26.300781 31.753906 26.300781 C 33.21875 26.300781 34.398438 27.480469 34.398438 28.945312 L 42.335938 28.945312 L 42.335938 28.285156 L 34.398438 28.285156 C 34.398438 26.816406 33.21875 25.636719 31.753906 25.636719 Z M 31.753906 25.636719 "/>
<path style=" stroke:none;fill-rule:nonzero;fill:rgb(100%,100%,100%);fill-opacity:1;" d="M 31.753906 26.300781 C 30.285156 26.300781 29.105469 27.480469 29.105469 28.945312 L 21.167969 28.945312 L 21.167969 29.605469 L 29.105469 29.605469 C 29.105469 28.140625 30.285156 26.960938 31.753906 26.960938 C 33.21875 26.960938 34.398438 28.140625 34.398438 29.605469 L 42.335938 29.605469 L 42.335938 28.945312 L 34.398438 28.945312 C 34.398438 27.480469 33.21875 26.300781 31.753906 26.300781 Z M 31.753906 26.300781 "/>
<path style=" stroke:none;fill-rule:nonzero;fill:rgb(0%,0%,0%);fill-opacity:0.235294;" d="M 31.753906 9.761719 C 30.285156 9.761719 29.105469 10.941406 29.105469 12.40625 L 21.167969 12.40625 L 21.167969 13.070312 L 29.105469 13.070312 C 29.105469 11.601562 30.285156 10.421875 31.753906 10.421875 C 33.21875 10.421875 34.398438 11.601562 34.398438 13.070312 L 42.335938 13.070312 L 42.335938 12.40625 L 34.398438 12.40625 C 34.398438 10.941406 33.21875 9.761719 31.753906 9.761719 Z M 31.753906 9.761719 "/>
<path style=" stroke:none;fill-rule:nonzero;fill:rgb(100%,100%,100%);fill-opacity:0.392157;" d="M 31.753906 10.421875 C 30.285156 10.421875 29.105469 11.601562 29.105469 13.070312 L 21.167969 13.070312 L 21.167969 13.730469 L 29.105469 13.730469 C 29.105469 12.265625 30.285156 11.085938 31.753906 11.085938 C 33.21875 11.085938 34.398438 12.265625 34.398438 13.730469 L 42.335938 13.730469 L 42.335938 13.070312 L 34.398438 13.070312 C 34.398438 11.601562 33.21875 10.421875 31.753906 10.421875 Z M 31.753906 10.421875 "/>
<path style=" stroke:none;fill-rule:nonzero;fill:rgb(12.941177%,12.941177%,12.941177%);fill-opacity:1;" d="M 23.816406 5.605469 C 22.25 5.605469 20.980469 6.871094 20.980469 8.4375 L 20.980469 34.710938 L 13.230469 34.710938 C 11.925781 34.710938 10.953125 35.53125 10.574219 36.5625 C 10.191406 37.59375 10.394531 38.847656 11.386719 39.695312 L 29.910156 55.574219 C 30.96875 56.480469 32.535156 56.480469 33.597656 55.574219 L 52.121094 39.695312 C 53.109375 38.847656 53.3125 37.59375 52.933594 36.5625 C 52.550781 35.53125 51.582031 34.710938 50.277344 34.710938 L 42.523438 34.710938 L 42.523438 8.4375 C 42.523438 6.871094 41.257812 5.605469 39.691406 5.605469 Z M 23.816406 5.980469 L 39.691406 5.980469 C 41.054688 5.980469 42.148438 7.074219 42.148438 8.4375 L 42.148438 34.898438 C 42.148438 35.003906 42.234375 35.085938 42.335938 35.085938 L 50.277344 35.085938 C 51.425781 35.085938 52.25 35.792969 52.582031 36.691406 C 52.914062 37.589844 52.75 38.664062 51.875 39.410156 L 33.351562 55.289062 C 32.429688 56.078125 31.074219 56.078125 30.152344 55.289062 L 11.628906 39.410156 C 10.757812 38.664062 10.59375 37.589844 10.925781 36.691406 C 11.257812 35.792969 12.082031 35.085938 13.230469 35.085938 L 21.167969 35.085938 C 21.273438 35.085938 21.355469 35.003906 21.355469 34.898438 L 21.355469 8.4375 C 21.355469 7.074219 22.449219 5.980469 23.816406 5.980469 Z M 23.816406 5.980469 "/>
</g>
</svg>
